X: 1
T: All You Need Is Move
M: 4/4
L: 1/8
R: reel
K: Gmaj
G2ED G2Bd|eBdB ABGE|G2ED G2Bd|1egdB A2GE:|2egdB ABcd||
e3d eage|dB~B2 dBAG|e3d eage|dBGB ABcd|
e3d eage|dB~B2 dBAG|eAAG dBAG|DEGB ABGE|
